( waita )
( File created: Wednesday March 11 2026 - 08:11 PM)
( for Masso from Vectric VCarve Pro / Aspire 11)
(Post Processor version v1.2)
( Material Size)
( X= 185.000, Y= 2000.000 ,Z= 18.500)
()
(Toolpaths used in this file:)
(hane mizo -6.5)
(hozo ana)
(pocket -6.5)
(gaikei)
(Tools used in this file: )
(1 = ƒGƒ“ƒhƒ~ƒ‹ 12)
N15 G00 
N16 G21
N17 G17
N18 G90
N19 G80
N20 (ƒGƒ“ƒhƒ~ƒ‹ 12)
N21 T1 M06
N22 G00 Z100.000
N23 S18000 M03
N24 (Toolpath:- hane mizo -6.5)
N25 ()
N26 G94
N27 X400.000 Y400.000 F2500.0
N28 G00 X120.624 Y134.926 Z10.000
N29 G00 X120.624 Y134.926 Z2.000
N30 G1 X120.624 Y134.926 Z-6.500 F500.0
N31 G1 X49.279 Y86.906 Z-6.500 F2500.0
N32 G1 X50.395 Y85.247 Z-6.500
N33 G1 X121.741 Y133.266 Z-6.500
N34 G1 X120.624 Y134.926 Z-6.500
N35 G00 X120.624 Y134.926 Z10.000
N36 G00 X125.297 Y233.324 Z10.000
N37 G00 X125.297 Y233.324 Z2.000
N38 G1 X125.297 Y233.324 Z-6.500 F500.0
N39 G1 X124.900 Y235.284 Z-6.500 F2500.0
N40 G1 X40.610 Y218.223 Z-6.500
N41 G1 X41.006 Y216.263 Z-6.500
N42 G1 X125.297 Y233.324 Z-6.500
N43 G00 X125.297 Y233.324 Z10.000
N44 G00 X139.660 Y365.715 Z10.000
N45 G00 X139.660 Y365.715 Z2.000
N46 G1 X139.660 Y365.715 Z-6.500 F500.0
N47 G1 X140.777 Y367.375 Z-6.500 F2500.0
N48 G1 X69.432 Y415.394 Z-6.500
N49 G1 X68.315 Y413.735 Z-6.500
N50 G1 X139.660 Y365.715 Z-6.500
N51 G00 X139.660 Y365.715 Z10.000
N52 G00 X149.049 Y496.731 Z10.000
N53 G00 X149.049 Y496.731 Z2.000
N54 G1 X149.049 Y496.731 Z-6.500 F500.0
N55 G1 X149.446 Y498.691 Z-6.500 F2500.0
N56 G1 X65.155 Y515.753 Z-6.500
N57 G1 X64.758 Y513.792 Z-6.500
N58 G1 X149.049 Y496.731 Z-6.500
N59 G00 X149.049 Y496.731 Z10.000
N60 G00 X50.395 Y655.751 Z10.000
N61 G00 X50.395 Y655.751 Z2.000
N62 G1 X50.395 Y655.751 Z-6.500 F500.0
N63 G1 X121.741 Y703.770 Z-6.500 F2500.0
N64 G1 X120.624 Y705.429 Z-6.500
N65 G1 X49.279 Y657.410 Z-6.500
N66 G1 X50.395 Y655.751 Z-6.500
N67 G00 X50.395 Y655.751 Z10.000
N68 G00 X41.006 Y786.766 Z10.000
N69 G00 X41.006 Y786.766 Z2.000
N70 G1 X41.006 Y786.766 Z-6.500 F500.0
N71 G1 X125.297 Y803.828 Z-6.500 F2500.0
N72 G1 X124.900 Y805.788 Z-6.500
N73 G1 X40.610 Y788.727 Z-6.500
N74 G1 X41.006 Y786.766 Z-6.500
N75 G00 X41.006 Y786.766 Z10.000
N76 G00 X139.660 Y936.219 Z10.000
N77 G00 X139.660 Y936.219 Z2.000
N78 G1 X139.660 Y936.219 Z-6.500 F500.0
N79 G1 X140.777 Y937.878 Z-6.500 F2500.0
N80 G1 X69.432 Y985.897 Z-6.500
N81 G1 X68.315 Y984.238 Z-6.500
N82 G1 X139.660 Y936.219 Z-6.500
N83 G00 X139.660 Y936.219 Z10.000
N84 G00 X149.049 Y1067.234 Z10.000
N85 G00 X149.049 Y1067.234 Z2.000
N86 G1 X149.049 Y1067.234 Z-6.500 F500.0
N87 G1 X149.446 Y1069.195 Z-6.500 F2500.0
N88 G1 X65.155 Y1086.256 Z-6.500
N89 G1 X64.758 Y1084.296 Z-6.500
N90 G1 X149.049 Y1067.234 Z-6.500
N91 G00 X149.049 Y1067.234 Z10.000
N92 G00 X50.395 Y1224.086 Z10.000
N93 G00 X50.395 Y1224.086 Z2.000
N94 G1 X50.395 Y1224.086 Z-6.500 F500.0
N95 G1 X121.741 Y1272.105 Z-6.500 F2500.0
N96 G1 X120.624 Y1273.764 Z-6.500
N97 G1 X49.279 Y1225.745 Z-6.500
N98 G1 X50.395 Y1224.086 Z-6.500
N99 G00 X50.395 Y1224.086 Z10.000
N100 G00 X41.006 Y1355.102 Z10.000
N101 G00 X41.006 Y1355.102 Z2.000
N102 G1 X41.006 Y1355.102 Z-6.500 F500.0
N103 G1 X125.297 Y1372.163 Z-6.500 F2500.0
N104 G1 X124.900 Y1374.123 Z-6.500
N105 G1 X40.610 Y1357.062 Z-6.500
N106 G1 X41.006 Y1355.102 Z-6.500
N107 G00 X41.006 Y1355.102 Z10.000
N108 G00 X139.660 Y1504.554 Z10.000
N109 G00 X139.660 Y1504.554 Z2.000
N110 G1 X139.660 Y1504.554 Z-6.500 F500.0
N111 G1 X140.777 Y1506.213 Z-6.500 F2500.0
N112 G1 X69.432 Y1554.233 Z-6.500
N113 G1 X68.315 Y1552.573 Z-6.500
N114 G1 X139.660 Y1504.554 Z-6.500
N115 G00 X139.660 Y1504.554 Z10.000
N116 G00 X149.049 Y1635.570 Z10.000
N117 G00 X149.049 Y1635.570 Z2.000
N118 G1 X149.049 Y1635.570 Z-6.500 F500.0
N119 G1 X149.446 Y1637.530 Z-6.500 F2500.0
N120 G1 X65.155 Y1654.591 Z-6.500
N121 G1 X64.758 Y1652.631 Z-6.500
N122 G1 X149.049 Y1635.570 Z-6.500
N123 G00 X149.049 Y1635.570 Z10.000
N124 S18000 M03
(hozo ana)
()
N127 G00 X95.497 Y229.333 Z10.000
N128 G00 X95.497 Y229.333 Z2.000
N129 G1 X95.497 Y229.333 Z-6.500 F1000.0
N130 G1 X68.053 Y223.778 Z-9.533 
N131 G1 X68.450 Y221.818 Z-9.750 
N132 G1 X95.893 Y227.373 Z-12.783 
N133 G1 X95.497 Y229.333 Z-13.000 
N134 G1 X68.053 Y223.778 Z-16.033 
N135 G1 X68.450 Y221.818 Z-16.250 
N136 G1 X95.893 Y227.373 Z-19.283 
N137 G1 X95.497 Y229.333 Z-19.500 
N138 G1 X68.053 Y223.778 Z-19.500 
N139 G1 X68.450 Y221.818 Z-19.500
N140 G1 X95.893 Y227.373 Z-19.500
N141 G1 X95.497 Y229.333 Z-19.500
N142 G00 X95.497 Y229.333 Z10.000
N143 G00 X95.736 Y118.175 Z10.000
N144 G00 X95.736 Y118.175 Z2.000
N145 G1 X95.736 Y118.175 Z-6.500 F1000.0
N146 G1 X72.507 Y102.541 Z-9.533 
N147 G1 X73.624 Y100.881 Z-9.750 
N148 G1 X96.853 Y116.516 Z-12.783 
N149 G1 X95.736 Y118.175 Z-13.000 
N150 G1 X72.507 Y102.541 Z-16.033 
N151 G1 X73.624 Y100.881 Z-16.250 
N152 G1 X96.853 Y116.516 Z-19.283 
N153 G1 X95.736 Y118.175 Z-19.500 
N154 G1 X72.507 Y102.541 Z-19.500 
N155 G1 X73.624 Y100.881 Z-19.500
N156 G1 X96.853 Y116.516 Z-19.500
N157 G1 X95.736 Y118.175 Z-19.500
N158 G00 X95.736 Y118.175 Z10.000
N159 G00 X116.432 Y381.350 Z10.000
N160 G00 X116.432 Y381.350 Z2.000
N161 G1 X116.432 Y381.350 Z-6.500 F1000.0
N162 G1 X117.548 Y383.009 Z-6.717 
N163 G1 X94.320 Y398.643 Z-9.750 
N164 G1 X93.203 Y396.984 Z-9.967 
N165 G1 X116.432 Y381.350 Z-13.000 
N166 G1 X117.548 Y383.009 Z-13.217 
N167 G1 X94.320 Y398.643 Z-16.250 
N168 G1 X93.203 Y396.984 Z-16.467 
N169 G1 X116.432 Y381.350 Z-19.500 
N170 G1 X117.548 Y383.009 Z-19.500 
N171 G1 X94.320 Y398.643 Z-19.500
N172 G1 X93.203 Y396.984 Z-19.500
N173 G1 X116.432 Y381.350 Z-19.500
N174 G00 X116.432 Y381.350 Z10.000
N175 G00 X121.606 Y502.286 Z10.000
N176 G00 X121.606 Y502.286 Z2.000
N177 G1 X121.606 Y502.286 Z-6.500 F1000.0
N178 G1 X122.002 Y504.246 Z-6.717 
N179 G1 X94.559 Y509.801 Z-9.750 
N180 G1 X94.162 Y507.841 Z-9.967 
N181 G1 X121.606 Y502.286 Z-13.000 
N182 G1 X122.002 Y504.246 Z-13.217 
N183 G1 X94.559 Y509.801 Z-16.250 
N184 G1 X94.162 Y507.841 Z-16.467 
N185 G1 X121.606 Y502.286 Z-19.500 
N186 G1 X122.002 Y504.246 Z-19.500 
N187 G1 X94.559 Y509.801 Z-19.500
N188 G1 X94.162 Y507.841 Z-19.500
N189 G1 X121.606 Y502.286 Z-19.500
N190 G00 X121.606 Y502.286 Z10.000
N191 G00 X73.624 Y671.385 Z10.000
N192 G00 X73.624 Y671.385 Z2.000
N193 G1 X73.624 Y671.385 Z-6.500 F1000.0
N194 G1 X96.853 Y687.019 Z-9.533 
N195 G1 X95.736 Y688.678 Z-9.750 
N196 G1 X72.507 Y673.044 Z-12.783 
N197 G1 X73.624 Y671.385 Z-13.000 
N198 G1 X96.853 Y687.019 Z-16.033 
N199 G1 X95.736 Y688.678 Z-16.250 
N200 G1 X72.507 Y673.044 Z-19.283 
N201 G1 X73.624 Y671.385 Z-19.500 
N202 G1 X96.853 Y687.019 Z-19.500 
N203 G1 X95.736 Y688.678 Z-19.500
N204 G1 X72.507 Y673.044 Z-19.500
N205 G1 X73.624 Y671.385 Z-19.500
N206 G00 X73.624 Y671.385 Z10.000
N207 G00 X68.450 Y792.321 Z10.000
N208 G00 X68.450 Y792.321 Z2.000
N209 G1 X68.450 Y792.321 Z-6.500 F1000.0
N210 G1 X95.893 Y797.876 Z-9.533 
N211 G1 X95.497 Y799.836 Z-9.750 
N212 G1 X68.053 Y794.281 Z-12.783 
N213 G1 X68.450 Y792.321 Z-13.000 
N214 G1 X95.893 Y797.876 Z-16.033 
N215 G1 X95.497 Y799.836 Z-16.250 
N216 G1 X68.053 Y794.281 Z-19.283 
N217 G1 X68.450 Y792.321 Z-19.500 
N218 G1 X95.893 Y797.876 Z-19.500 
N219 G1 X95.497 Y799.836 Z-19.500
N220 G1 X68.053 Y794.281 Z-19.500
N221 G1 X68.450 Y792.321 Z-19.500
N222 G00 X68.450 Y792.321 Z10.000
N223 G00 X116.432 Y951.853 Z10.000
N224 G00 X116.432 Y951.853 Z2.000
N225 G1 X116.432 Y951.853 Z-6.500 F1000.0
N226 G1 X117.548 Y953.512 Z-6.717 
N227 G1 X94.320 Y969.146 Z-9.750 
N228 G1 X93.203 Y967.487 Z-9.967 
N229 G1 X116.432 Y951.853 Z-13.000 
N230 G1 X117.548 Y953.512 Z-13.217 
N231 G1 X94.320 Y969.146 Z-16.250 
N232 G1 X93.203 Y967.487 Z-16.467 
N233 G1 X116.432 Y951.853 Z-19.500 
N234 G1 X117.548 Y953.512 Z-19.500 
N235 G1 X94.320 Y969.146 Z-19.500
N236 G1 X93.203 Y967.487 Z-19.500
N237 G1 X116.432 Y951.853 Z-19.500
N238 G00 X116.432 Y951.853 Z10.000
N239 G00 X121.606 Y1072.789 Z10.000
N240 G00 X121.606 Y1072.789 Z2.000
N241 G1 X121.606 Y1072.789 Z-6.500 F1000.0
N242 G1 X122.002 Y1074.750 Z-6.717 
N243 G1 X94.559 Y1080.304 Z-9.750 
N244 G1 X94.162 Y1078.344 Z-9.967 
N245 G1 X121.606 Y1072.789 Z-13.000 
N246 G1 X122.002 Y1074.750 Z-13.217 
N247 G1 X94.559 Y1080.304 Z-16.250 
N248 G1 X94.162 Y1078.344 Z-16.467 
N249 G1 X121.606 Y1072.789 Z-19.500 
N250 G1 X122.002 Y1074.750 Z-19.500 
N251 G1 X94.559 Y1080.304 Z-19.500
N252 G1 X94.162 Y1078.344 Z-19.500
N253 G1 X121.606 Y1072.789 Z-19.500
N254 G00 X121.606 Y1072.789 Z10.000
N255 G00 X73.624 Y1239.720 Z10.000
N256 G00 X73.624 Y1239.720 Z2.000
N257 G1 X73.624 Y1239.720 Z-6.500 F1000.0
N258 G1 X96.853 Y1255.354 Z-9.533 
N259 G1 X95.736 Y1257.014 Z-9.750 
N260 G1 X72.507 Y1241.379 Z-12.783 
N261 G1 X73.624 Y1239.720 Z-13.000 
N262 G1 X96.853 Y1255.354 Z-16.033 
N263 G1 X95.736 Y1257.014 Z-16.250 
N264 G1 X72.507 Y1241.379 Z-19.283 
N265 G1 X73.624 Y1239.720 Z-19.500 
N266 G1 X96.853 Y1255.354 Z-19.500 
N267 G1 X95.736 Y1257.014 Z-19.500
N268 G1 X72.507 Y1241.379 Z-19.500
N269 G1 X73.624 Y1239.720 Z-19.500
N270 G00 X73.624 Y1239.720 Z10.000
N271 G00 X68.450 Y1360.656 Z10.000
N272 G00 X68.450 Y1360.656 Z2.000
N273 G1 X68.450 Y1360.656 Z-6.500 F1000.0
N274 G1 X95.893 Y1366.211 Z-9.533 
N275 G1 X95.497 Y1368.172 Z-9.750 
N276 G1 X68.053 Y1362.617 Z-12.783 
N277 G1 X68.450 Y1360.656 Z-13.000 
N278 G1 X95.893 Y1366.211 Z-16.033 
N279 G1 X95.497 Y1368.172 Z-16.250 
N280 G1 X68.053 Y1362.617 Z-19.283 
N281 G1 X68.450 Y1360.656 Z-19.500 
N282 G1 X95.893 Y1366.211 Z-19.500 
N283 G1 X95.497 Y1368.172 Z-19.500
N284 G1 X68.053 Y1362.617 Z-19.500
N285 G1 X68.450 Y1360.656 Z-19.500
N286 G00 X68.450 Y1360.656 Z10.000
N287 G00 X116.432 Y1520.188 Z10.000
N288 G00 X116.432 Y1520.188 Z2.000
N289 G1 X116.432 Y1520.188 Z-6.500 F1000.0
N290 G1 X117.548 Y1521.848 Z-6.717 
N291 G1 X94.320 Y1537.482 Z-9.750 
N292 G1 X93.203 Y1535.823 Z-9.967 
N293 G1 X116.432 Y1520.188 Z-13.000 
N294 G1 X117.548 Y1521.848 Z-13.217 
N295 G1 X94.320 Y1537.482 Z-16.250 
N296 G1 X93.203 Y1535.823 Z-16.467 
N297 G1 X116.432 Y1520.188 Z-19.500 
N298 G1 X117.548 Y1521.848 Z-19.500 
N299 G1 X94.320 Y1537.482 Z-19.500
N300 G1 X93.203 Y1535.823 Z-19.500
N301 G1 X116.432 Y1520.188 Z-19.500
N302 G00 X116.432 Y1520.188 Z10.000
N303 G00 X121.606 Y1641.125 Z10.000
N304 G00 X121.606 Y1641.125 Z2.000
N305 G1 X121.606 Y1641.125 Z-6.500 F1000.0
N306 G1 X122.002 Y1643.085 Z-6.717 
N307 G1 X94.559 Y1648.640 Z-9.750 
N308 G1 X94.162 Y1646.679 Z-9.967 
N309 G1 X121.606 Y1641.125 Z-13.000 
N310 G1 X122.002 Y1643.085 Z-13.217 
N311 G1 X94.559 Y1648.640 Z-16.250 
N312 G1 X94.162 Y1646.679 Z-16.467 
N313 G1 X121.606 Y1641.125 Z-19.500 
N314 G1 X122.002 Y1643.085 Z-19.500 
N315 G1 X94.559 Y1648.640 Z-19.500
N316 G1 X94.162 Y1646.679 Z-19.500
N317 G1 X121.606 Y1641.125 Z-19.500
N318 G00 X121.606 Y1641.125 Z10.000
N319 S18000 M03
(pocket -6.5)
()
N322 G00 X60.530 Y43.321 Z10.000
N323 G00 X60.530 Y43.321 Z2.000
N324 G1 X60.530 Y43.321 Z-6.500 F500.0
N325 G1 X140.364 Y76.389 Z-6.500 F2500.0
N326 G1 X140.206 Y76.770 Z-6.500
N327 G1 X60.372 Y43.701 Z-6.500
N328 G1 X60.530 Y43.321 Z-6.500
N329 G1 X58.581 Y38.617 Z-6.500 
N330 G1 X145.068 Y74.441 Z-6.500 
N331 G1 X142.155 Y81.473 Z-6.500
N332 G1 X55.668 Y45.650 Z-6.500
N333 G1 X58.581 Y38.617 Z-6.500
N334 G1 X56.633 Y33.914 Z-6.500 
N335 G1 X149.771 Y72.493 Z-6.500 
N336 G1 X144.103 Y86.177 Z-6.500
N337 G1 X50.965 Y47.598 Z-6.500
N338 G1 X56.633 Y33.914 Z-6.500
N339 G1 X54.683 Y29.215 Z-6.500 
N340 G1 X54.690 Y29.212 Z-6.500 
N341 G1 X154.469 Y70.542 Z-6.500
N342 G1 X154.473 Y70.550 Z-6.500
N343 G1 X146.054 Y90.875 Z-6.500
N344 G1 X146.046 Y90.878 Z-6.500
N345 G1 X46.267 Y49.549 Z-6.500
N346 G1 X46.263 Y49.541 Z-6.500
N347 G1 X54.683 Y29.215 Z-6.500
N348 G00 X54.683 Y29.215 Z10.000
N349 G00 X60.380 Y305.013 Z10.000
N350 G00 X60.380 Y305.013 Z2.000
N351 G1 X60.380 Y305.013 Z-6.500 F500.0
N352 G1 X140.203 Y271.949 Z-6.500 F2500.0
N353 G1 X140.356 Y272.319 Z-6.500
N354 G1 X60.533 Y305.383 Z-6.500
N355 G1 X60.380 Y305.013 Z-6.500
N356 G1 X55.676 Y303.065 Z-6.500 
N357 G1 X142.151 Y267.246 Z-6.500 
N358 G1 X145.060 Y274.267 Z-6.500
N359 G1 X58.585 Y310.086 Z-6.500
N360 G1 X55.676 Y303.065 Z-6.500
N361 G1 X50.973 Y301.116 Z-6.500 
N362 G1 X144.100 Y262.542 Z-6.500 
N363 G1 X149.763 Y276.215 Z-6.500
N364 G1 X56.636 Y314.790 Z-6.500
N365 G1 X50.973 Y301.116 Z-6.500
N366 G1 X46.269 Y299.168 Z-6.500 
N367 G1 X146.048 Y257.838 Z-6.500 
N368 G1 X154.467 Y278.164 Z-6.500
N369 G1 X54.688 Y319.493 Z-6.500
N370 G1 X46.269 Y299.168 Z-6.500
N371 G00 X46.269 Y299.168 Z10.000
N372 G00 X129.526 Y323.789 Z10.000
N373 G00 X129.526 Y323.789 Z2.000
N374 G1 X129.526 Y323.789 Z-6.500 F500.0
N375 G1 X129.683 Y324.170 Z-6.500 F2500.0
N376 G1 X49.849 Y357.238 Z-6.500
N377 G1 X49.691 Y356.857 Z-6.500
N378 G1 X129.526 Y323.789 Z-6.500
N379 G1 X131.474 Y319.085 Z-6.500 
N380 G1 X134.387 Y326.118 Z-6.500 
N381 G1 X47.901 Y361.942 Z-6.500
N382 G1 X44.988 Y354.909 Z-6.500
N383 G1 X131.474 Y319.085 Z-6.500
N384 G1 X133.422 Y314.382 Z-6.500 
N385 G1 X139.091 Y328.066 Z-6.500 
N386 G1 X45.953 Y366.645 Z-6.500
N387 G1 X40.284 Y352.961 Z-6.500
N388 G1 X133.422 Y314.382 Z-6.500
N389 G1 X135.373 Y309.684 Z-6.500 
N390 G1 X143.792 Y330.009 Z-6.500 
N391 G1 X143.789 Y330.017 Z-6.500
N392 G1 X44.010 Y371.347 Z-6.500
N393 G1 X44.002 Y371.343 Z-6.500
N394 G1 X35.583 Y351.018 Z-6.500
N395 G1 X35.586 Y351.010 Z-6.500
N396 G1 X135.365 Y309.680 Z-6.500
N397 G1 X135.373 Y309.684 Z-6.500
N398 G00 X135.373 Y309.684 Z10.000
N399 G00 X129.676 Y585.481 Z10.000
N400 G00 X129.676 Y585.481 Z2.000
N401 G1 X129.676 Y585.481 Z-6.500 F500.0
N402 G1 X129.523 Y585.851 Z-6.500 F2500.0
N403 G1 X49.699 Y552.787 Z-6.500
N404 G1 X49.852 Y552.417 Z-6.500
N405 G1 X129.676 Y585.481 Z-6.500
N406 G1 X134.379 Y583.533 Z-6.500 
N407 G1 X131.471 Y590.554 Z-6.500 
N408 G1 X44.996 Y554.735 Z-6.500
N409 G1 X47.904 Y547.714 Z-6.500
N410 G1 X134.379 Y583.533 Z-6.500
N411 G1 X139.083 Y581.585 Z-6.500 
N412 G1 X133.419 Y595.258 Z-6.500 
N413 G1 X40.292 Y556.683 Z-6.500
N414 G1 X45.956 Y543.010 Z-6.500
N415 G1 X139.083 Y581.585 Z-6.500
N416 G1 X143.786 Y579.636 Z-6.500 
N417 G1 X135.367 Y599.962 Z-6.500 
N418 G1 X35.588 Y558.632 Z-6.500
N419 G1 X44.007 Y538.306 Z-6.500
N420 G1 X143.786 Y579.636 Z-6.500
N421 G00 X143.786 Y579.636 Z10.000
N422 G00 X60.530 Y613.824 Z10.000
N423 G00 X60.530 Y613.824 Z2.000
N424 G1 X60.530 Y613.824 Z-6.500 F500.0
N425 G1 X140.364 Y646.893 Z-6.500 F2500.0
N426 G1 X140.206 Y647.273 Z-6.500
N427 G1 X60.372 Y614.205 Z-6.500
N428 G1 X60.530 Y613.824 Z-6.500
N429 G1 X58.581 Y609.121 Z-6.500 
N430 G1 X145.068 Y644.944 Z-6.500 
N431 G1 X142.155 Y651.977 Z-6.500
N432 G1 X55.668 Y616.153 Z-6.500
N433 G1 X58.581 Y609.121 Z-6.500
N434 G1 X56.633 Y604.417 Z-6.500 
N435 G1 X149.771 Y642.996 Z-6.500 
N436 G1 X144.103 Y656.681 Z-6.500
N437 G1 X50.965 Y618.101 Z-6.500
N438 G1 X56.633 Y604.417 Z-6.500
N439 G1 X54.683 Y599.719 Z-6.500 
N440 G1 X54.690 Y599.716 Z-6.500 
N441 G1 X154.469 Y641.045 Z-6.500
N442 G1 X154.473 Y641.053 Z-6.500
N443 G1 X146.054 Y661.379 Z-6.500
N444 G1 X146.046 Y661.382 Z-6.500
N445 G1 X46.267 Y620.052 Z-6.500
N446 G1 X46.263 Y620.044 Z-6.500
N447 G1 X54.683 Y599.719 Z-6.500
N448 G00 X54.683 Y599.719 Z10.000
N449 G00 X60.380 Y875.516 Z10.000
N450 G00 X60.380 Y875.516 Z2.000
N451 G1 X60.380 Y875.516 Z-6.500 F500.0
N452 G1 X140.203 Y842.453 Z-6.500 F2500.0
N453 G1 X140.356 Y842.822 Z-6.500
N454 G1 X60.533 Y875.886 Z-6.500
N455 G1 X60.380 Y875.516 Z-6.500
N456 G1 X55.676 Y873.568 Z-6.500 
N457 G1 X142.151 Y837.749 Z-6.500 
N458 G1 X145.060 Y844.770 Z-6.500
N459 G1 X58.585 Y880.590 Z-6.500
N460 G1 X55.676 Y873.568 Z-6.500
N461 G1 X50.973 Y871.620 Z-6.500 
N462 G1 X144.100 Y833.045 Z-6.500 
N463 G1 X149.763 Y846.719 Z-6.500
N464 G1 X56.636 Y885.293 Z-6.500
N465 G1 X50.973 Y871.620 Z-6.500
N466 G1 X46.269 Y869.672 Z-6.500 
N467 G1 X146.048 Y828.342 Z-6.500 
N468 G1 X154.467 Y848.667 Z-6.500
N469 G1 X54.688 Y889.997 Z-6.500
N470 G1 X46.269 Y869.672 Z-6.500
N471 G00 X46.269 Y869.672 Z10.000
N472 G00 X129.526 Y894.292 Z10.000
N473 G00 X129.526 Y894.292 Z2.000
N474 G1 X129.526 Y894.292 Z-6.500 F500.0
N475 G1 X129.683 Y894.673 Z-6.500 F2500.0
N476 G1 X49.849 Y927.741 Z-6.500
N477 G1 X49.691 Y927.361 Z-6.500
N478 G1 X129.526 Y894.292 Z-6.500
N479 G1 X131.474 Y889.589 Z-6.500 
N480 G1 X134.387 Y896.621 Z-6.500 
N481 G1 X47.901 Y932.445 Z-6.500
N482 G1 X44.988 Y925.413 Z-6.500
N483 G1 X131.474 Y889.589 Z-6.500
N484 G1 X133.422 Y884.885 Z-6.500 
N485 G1 X139.091 Y898.570 Z-6.500 
N486 G1 X45.953 Y937.149 Z-6.500
N487 G1 X40.284 Y923.464 Z-6.500
N488 G1 X133.422 Y884.885 Z-6.500
N489 G1 X135.373 Y880.187 Z-6.500 
N490 G1 X143.792 Y900.512 Z-6.500 
N491 G1 X143.789 Y900.520 Z-6.500
N492 G1 X44.010 Y941.850 Z-6.500
N493 G1 X44.002 Y941.847 Z-6.500
N494 G1 X35.583 Y921.521 Z-6.500
N495 G1 X35.586 Y921.514 Z-6.500
N496 G1 X135.365 Y880.184 Z-6.500
N497 G1 X135.373 Y880.187 Z-6.500
N498 G00 X135.373 Y880.187 Z10.000
N499 G00 X129.676 Y1155.985 Z10.000
N500 G00 X129.676 Y1155.985 Z2.000
N501 G1 X129.676 Y1155.985 Z-6.500 F500.0
N502 G1 X129.523 Y1156.354 Z-6.500 F2500.0
N503 G1 X49.699 Y1123.290 Z-6.500
N504 G1 X49.852 Y1122.921 Z-6.500
N505 G1 X129.676 Y1155.985 Z-6.500
N506 G1 X134.379 Y1154.036 Z-6.500 
N507 G1 X131.471 Y1161.058 Z-6.500 
N508 G1 X44.996 Y1125.239 Z-6.500
N509 G1 X47.904 Y1118.217 Z-6.500
N510 G1 X134.379 Y1154.036 Z-6.500
N511 G1 X139.083 Y1152.088 Z-6.500 
N512 G1 X133.419 Y1165.761 Z-6.500 
N513 G1 X40.292 Y1127.187 Z-6.500
N514 G1 X45.956 Y1113.513 Z-6.500
N515 G1 X139.083 Y1152.088 Z-6.500
N516 G1 X143.786 Y1150.140 Z-6.500 
N517 G1 X135.367 Y1170.465 Z-6.500 
N518 G1 X35.588 Y1129.135 Z-6.500
N519 G1 X44.007 Y1108.810 Z-6.500
N520 G1 X143.786 Y1150.140 Z-6.500
N521 G00 X143.786 Y1150.140 Z10.000
N522 G00 X60.530 Y1182.160 Z10.000
N523 G00 X60.530 Y1182.160 Z2.000
N524 G1 X60.530 Y1182.160 Z-6.500 F500.0
N525 G1 X140.364 Y1215.228 Z-6.500 F2500.0
N526 G1 X140.206 Y1215.609 Z-6.500
N527 G1 X60.372 Y1182.540 Z-6.500
N528 G1 X60.530 Y1182.160 Z-6.500
N529 G1 X58.581 Y1177.456 Z-6.500 
N530 G1 X145.068 Y1213.280 Z-6.500 
N531 G1 X142.155 Y1220.312 Z-6.500
N532 G1 X55.668 Y1184.489 Z-6.500
N533 G1 X58.581 Y1177.456 Z-6.500
N534 G1 X56.633 Y1172.752 Z-6.500 
N535 G1 X149.771 Y1211.331 Z-6.500 
N536 G1 X144.103 Y1225.016 Z-6.500
N537 G1 X50.965 Y1186.437 Z-6.500
N538 G1 X56.633 Y1172.752 Z-6.500
N539 G1 X54.683 Y1168.054 Z-6.500 
N540 G1 X54.690 Y1168.051 Z-6.500 
N541 G1 X154.469 Y1209.381 Z-6.500
N542 G1 X154.473 Y1209.389 Z-6.500
N543 G1 X146.054 Y1229.714 Z-6.500
N544 G1 X146.046 Y1229.717 Z-6.500
N545 G1 X46.267 Y1188.387 Z-6.500
N546 G1 X46.263 Y1188.380 Z-6.500
N547 G1 X54.683 Y1168.054 Z-6.500
N548 G00 X54.683 Y1168.054 Z10.000
N549 G00 X60.380 Y1443.852 Z10.000
N550 G00 X60.380 Y1443.852 Z2.000
N551 G1 X60.380 Y1443.852 Z-6.500 F500.0
N552 G1 X140.203 Y1410.788 Z-6.500 F2500.0
N553 G1 X140.356 Y1411.157 Z-6.500
N554 G1 X60.533 Y1444.221 Z-6.500
N555 G1 X60.380 Y1443.852 Z-6.500
N556 G1 X55.676 Y1441.903 Z-6.500 
N557 G1 X142.151 Y1406.084 Z-6.500 
N558 G1 X145.060 Y1413.106 Z-6.500
N559 G1 X58.585 Y1448.925 Z-6.500
N560 G1 X55.676 Y1441.903 Z-6.500
N561 G1 X50.973 Y1439.955 Z-6.500 
N562 G1 X144.100 Y1401.381 Z-6.500 
N563 G1 X149.763 Y1415.054 Z-6.500
N564 G1 X56.636 Y1453.629 Z-6.500
N565 G1 X50.973 Y1439.955 Z-6.500
N566 G1 X46.269 Y1438.007 Z-6.500 
N567 G1 X146.048 Y1396.677 Z-6.500 
N568 G1 X154.467 Y1417.002 Z-6.500
N569 G1 X54.688 Y1458.332 Z-6.500
N570 G1 X46.269 Y1438.007 Z-6.500
N571 G00 X46.269 Y1438.007 Z10.000
N572 G00 X129.526 Y1462.628 Z10.000
N573 G00 X129.526 Y1462.628 Z2.000
N574 G1 X129.526 Y1462.628 Z-6.500 F500.0
N575 G1 X129.683 Y1463.008 Z-6.500 F2500.0
N576 G1 X49.849 Y1496.077 Z-6.500
N577 G1 X49.691 Y1495.696 Z-6.500
N578 G1 X129.526 Y1462.628 Z-6.500
N579 G1 X131.474 Y1457.924 Z-6.500 
N580 G1 X134.387 Y1464.957 Z-6.500 
N581 G1 X47.901 Y1500.780 Z-6.500
N582 G1 X44.988 Y1493.748 Z-6.500
N583 G1 X131.474 Y1457.924 Z-6.500
N584 G1 X133.422 Y1453.220 Z-6.500 
N585 G1 X139.091 Y1466.905 Z-6.500 
N586 G1 X45.953 Y1505.484 Z-6.500
N587 G1 X40.284 Y1491.800 Z-6.500
N588 G1 X133.422 Y1453.220 Z-6.500
N589 G1 X135.373 Y1448.522 Z-6.500 
N590 G1 X143.792 Y1468.848 Z-6.500 
N591 G1 X143.789 Y1468.856 Z-6.500
N592 G1 X44.010 Y1510.185 Z-6.500
N593 G1 X44.002 Y1510.182 Z-6.500
N594 G1 X35.583 Y1489.857 Z-6.500
N595 G1 X35.586 Y1489.849 Z-6.500
N596 G1 X135.365 Y1448.519 Z-6.500
N597 G1 X135.373 Y1448.522 Z-6.500
N598 G00 X135.373 Y1448.522 Z10.000
N599 G00 X129.676 Y1724.320 Z10.000
N600 G00 X129.676 Y1724.320 Z2.000
N601 G1 X129.676 Y1724.320 Z-6.500 F500.0
N602 G1 X129.523 Y1724.689 Z-6.500 F2500.0
N603 G1 X49.699 Y1691.626 Z-6.500
N604 G1 X49.852 Y1691.256 Z-6.500
N605 G1 X129.676 Y1724.320 Z-6.500
N606 G1 X134.379 Y1722.372 Z-6.500 
N607 G1 X131.471 Y1729.393 Z-6.500 
N608 G1 X44.996 Y1693.574 Z-6.500
N609 G1 X47.904 Y1686.552 Z-6.500
N610 G1 X134.379 Y1722.372 Z-6.500
N611 G1 X139.083 Y1720.423 Z-6.500 
N612 G1 X133.419 Y1734.097 Z-6.500 
N613 G1 X40.292 Y1695.522 Z-6.500
N614 G1 X45.956 Y1681.849 Z-6.500
N615 G1 X139.083 Y1720.423 Z-6.500
N616 G1 X143.786 Y1718.475 Z-6.500 
N617 G1 X135.367 Y1738.800 Z-6.500 
N618 G1 X35.588 Y1697.471 Z-6.500
N619 G1 X44.007 Y1677.145 Z-6.500
N620 G1 X143.786 Y1718.475 Z-6.500
N621 G00 X143.786 Y1718.475 Z10.000
N622 S18000 M03
(gaikei)
()
N625 G00 X150.976 Y273.656 Z10.000
N626 G00 X150.976 Y273.656 Z2.000
N627 G1 X150.976 Y273.656 Z-9.750 F500.0
N628 G2 X154.224 Y265.817 I-2.296 J-5.543 F1500.0
N629 G3 X154.224 Y82.894 I220.807 J-91.461 
N630 G2 X150.976 Y75.055 I-5.543 J-2.296 
N631 G1 X112.121 Y58.960 Z-9.750 
N632 G1 X91.795 Y50.541 Z-9.750
N633 G1 X53.969 Y34.873 Z-9.750
N634 G2 X46.130 Y38.120 I-2.296 J5.543 
N635 G2 X46.130 Y310.591 I328.901 J136.235
N636 G2 X53.969 Y313.838 I5.543 J-2.296
N637 G1 X91.664 Y298.225 Z-9.750 
N638 G1 X111.989 Y289.806 Z-9.750
N639 G1 X150.976 Y273.656 Z-9.750
N640 G1 X150.976 Y273.656 Z-19.500 F500.0
N641 G2 X154.224 Y265.817 I-2.296 J-5.543 F1500.0
N642 G3 X154.224 Y82.894 I220.807 J-91.461 
N643 G2 X150.976 Y75.055 I-5.543 J-2.296 
N644 G1 X112.121 Y58.960 Z-19.500 
N645 G1 X112.121 Y58.960 Z-11.500
N646 G1 X91.795 Y50.541 Z-11.500
N647 G1 X91.795 Y50.541 Z-19.500 F500.0
N648 G1 X53.969 Y34.873 Z-19.500 F1500.0
N649 G2 X46.130 Y38.120 I-2.296 J5.543 
N650 G2 X46.130 Y310.591 I328.901 J136.235
N651 G2 X53.969 Y313.838 I5.543 J-2.296
N652 G1 X91.664 Y298.225 Z-19.500 
N653 G1 X91.664 Y298.225 Z-11.500
N654 G1 X111.989 Y289.806 Z-11.500
N655 G1 X111.989 Y289.806 Z-19.500 F500.0
N656 G1 X150.976 Y273.656 Z-19.500 F1500.0
N657 G00 X150.976 Y273.656 Z10.000
N658 G00 X136.086 Y315.341 Z10.000
N659 G00 X136.086 Y315.341 Z2.000
N660 G1 X136.086 Y315.341 Z-9.750 F500.0
N661 G1 X96.833 Y331.601 Z-9.750 F1500.0
N662 G1 X76.508 Y340.020 Z-9.750
N663 G1 X39.079 Y355.523 Z-9.750
N664 G2 X35.832 Y363.362 I2.296 J5.543 
N665 G3 X35.832 Y546.285 I-220.807 J91.461 
N666 G2 X39.079 Y554.124 I5.543 J2.296 
N667 G1 X77.531 Y570.052 Z-9.750 
N668 G1 X97.856 Y578.471 Z-9.750
N669 G1 X136.086 Y594.306 Z-9.750
N670 G2 X143.926 Y591.059 I2.296 J-5.543 
N671 G2 X143.926 Y318.588 I-328.901 J-136.235
N672 G2 X136.086 Y315.341 I-5.543 J2.296
N673 G1 X136.086 Y315.341 Z-19.500 F500.0
N674 G1 X96.833 Y331.601 Z-19.500 F1500.0
N675 G1 X96.833 Y331.601 Z-11.500
N676 G1 X76.508 Y340.020 Z-11.500
N677 G1 X76.508 Y340.020 Z-19.500 F500.0
N678 G1 X39.079 Y355.523 Z-19.500 F1500.0
N679 G2 X35.832 Y363.362 I2.296 J5.543 
N680 G3 X35.832 Y546.285 I-220.807 J91.461 
N681 G2 X39.079 Y554.124 I5.543 J2.296 
N682 G1 X77.531 Y570.052 Z-19.500 
N683 G1 X77.531 Y570.052 Z-11.500
N684 G1 X97.856 Y578.471 Z-11.500
N685 G1 X97.856 Y578.471 Z-19.500 F500.0
N686 G1 X136.086 Y594.306 Z-19.500 F1500.0
N687 G2 X143.926 Y591.059 I2.296 J-5.543 
N688 G2 X143.926 Y318.588 I-328.901 J-136.235
N689 G2 X136.086 Y315.341 I-5.543 J2.296
N690 G00 X136.086 Y315.341 Z10.000
N691 G00 X53.969 Y605.377 Z10.000
N692 G00 X53.969 Y605.377 Z2.000
N693 G1 X53.969 Y605.377 Z-9.750 F500.0
N694 G2 X46.130 Y608.624 I-2.296 J5.543 F1500.0
N695 G2 X46.130 Y881.094 I328.901 J136.235
N696 G2 X53.969 Y884.341 I5.543 J-2.296
N697 G1 X93.653 Y867.904 Z-9.750 
N698 G1 X113.978 Y859.485 Z-9.750
N699 G1 X150.976 Y844.160 Z-9.750
N700 G2 X154.224 Y836.320 I-2.296 J-5.543 
N701 G3 X154.224 Y653.398 I220.807 J-91.461 
N702 G2 X150.976 Y645.558 I-5.543 J-2.296 
N703 G1 X110.977 Y628.990 Z-9.750 
N704 G1 X90.651 Y620.571 Z-9.750
N705 G1 X53.969 Y605.377 Z-9.750
N706 G1 X53.969 Y605.377 Z-19.500 F500.0
N707 G2 X46.130 Y608.624 I-2.296 J5.543 F1500.0
N708 G2 X46.130 Y881.094 I328.901 J136.235
N709 G2 X53.969 Y884.341 I5.543 J-2.296
N710 G1 X93.653 Y867.904 Z-19.500 
N711 G1 X93.653 Y867.904 Z-11.500
N712 G1 X113.978 Y859.485 Z-11.500
N713 G1 X113.978 Y859.485 Z-19.500 F500.0
N714 G1 X150.976 Y844.160 Z-19.500 F1500.0
N715 G2 X154.224 Y836.320 I-2.296 J-5.543 
N716 G3 X154.224 Y653.398 I220.807 J-91.461 
N717 G2 X150.976 Y645.558 I-5.543 J-2.296 
N718 G1 X110.977 Y628.990 Z-19.500 
N719 G1 X110.977 Y628.990 Z-11.500
N720 G1 X90.651 Y620.571 Z-11.500
N721 G1 X90.651 Y620.571 Z-19.500 F500.0
N722 G1 X53.969 Y605.377 Z-19.500 F1500.0
N723 G00 X53.969 Y605.377 Z10.000
N724 G00 X136.086 Y885.845 Z10.000
N725 G00 X136.086 Y885.845 Z2.000
N726 G1 X136.086 Y885.845 Z-9.750 F500.0
N727 G1 X98.789 Y901.294 Z-9.750 F1500.0
N728 G1 X78.463 Y909.713 Z-9.750
N729 G1 X39.079 Y926.026 Z-9.750
N730 G2 X35.832 Y933.866 I2.296 J5.543 
N731 G3 X35.832 Y1116.789 I-220.807 J91.461 
N732 G2 X39.079 Y1124.628 I5.543 J2.296 
N733 G1 X76.713 Y1140.217 Z-9.750 
N734 G1 X97.039 Y1148.636 Z-9.750
N735 G1 X136.086 Y1164.810 Z-9.750
N736 G2 X143.926 Y1161.562 I2.296 J-5.543 
N737 G2 X143.926 Y889.092 I-328.901 J-136.235
N738 G2 X136.086 Y885.845 I-5.543 J2.296
N739 G1 X136.086 Y885.845 Z-19.500 F500.0
N740 G1 X98.789 Y901.294 Z-19.500 F1500.0
N741 G1 X98.789 Y901.294 Z-11.500
N742 G1 X78.463 Y909.713 Z-11.500
N743 G1 X78.463 Y909.713 Z-19.500 F500.0
N744 G1 X39.079 Y926.026 Z-19.500 F1500.0
N745 G2 X35.832 Y933.866 I2.296 J5.543 
N746 G3 X35.832 Y1116.789 I-220.807 J91.461 
N747 G2 X39.079 Y1124.628 I5.543 J2.296 
N748 G1 X76.713 Y1140.217 Z-19.500 
N749 G1 X76.713 Y1140.217 Z-11.500
N750 G1 X97.039 Y1148.636 Z-11.500
N751 G1 X97.039 Y1148.636 Z-19.500 F500.0
N752 G1 X136.086 Y1164.810 Z-19.500 F1500.0
N753 G2 X143.926 Y1161.562 I2.296 J-5.543 
N754 G2 X143.926 Y889.092 I-328.901 J-136.235
N755 G2 X136.086 Y885.845 I-5.543 J2.296
N756 G00 X136.086 Y885.845 Z10.000
N757 G00 X53.969 Y1173.712 Z10.000
N758 G00 X53.969 Y1173.712 Z2.000
N759 G1 X53.969 Y1173.712 Z-9.750 F500.0
N760 G2 X46.130 Y1176.959 I-2.296 J5.543 F1500.0
N761 G2 X46.130 Y1449.430 I328.901 J136.235
N762 G2 X53.969 Y1452.677 I5.543 J-2.296
N763 G1 X88.643 Y1438.315 Z-9.750 
N764 G1 X108.968 Y1429.896 Z-9.750
N765 G1 X150.976 Y1412.495 Z-9.750
N766 G2 X154.224 Y1404.656 I-2.296 J-5.543 
N767 G3 X154.224 Y1221.733 I220.807 J-91.461 
N768 G2 X150.976 Y1213.894 I-5.543 J-2.296 
N769 G1 X116.041 Y1199.423 Z-9.750 
N770 G1 X95.715 Y1191.004 Z-9.750
N771 G1 X53.969 Y1173.712 Z-9.750
N772 G1 X53.969 Y1173.712 Z-19.500 F500.0
N773 G2 X46.130 Y1176.959 I-2.296 J5.543 F1500.0
N774 G2 X46.130 Y1449.430 I328.901 J136.235
N775 G2 X53.969 Y1452.677 I5.543 J-2.296
N776 G1 X88.643 Y1438.315 Z-19.500 
N777 G1 X88.643 Y1438.315 Z-11.500
N778 G1 X108.968 Y1429.896 Z-11.500
N779 G1 X108.968 Y1429.896 Z-19.500 F500.0
N780 G1 X150.976 Y1412.495 Z-19.500 F1500.0
N781 G2 X154.224 Y1404.656 I-2.296 J-5.543 
N782 G3 X154.224 Y1221.733 I220.807 J-91.461 
N783 G2 X150.976 Y1213.894 I-5.543 J-2.296 
N784 G1 X116.041 Y1199.423 Z-19.500 
N785 G1 X116.041 Y1199.423 Z-11.500
N786 G1 X95.715 Y1191.004 Z-11.500
N787 G1 X95.715 Y1191.004 Z-19.500 F500.0
N788 G1 X53.969 Y1173.712 Z-19.500 F1500.0
N789 G00 X53.969 Y1173.712 Z10.000
N790 G00 X136.086 Y1454.180 Z10.000
N791 G00 X136.086 Y1454.180 Z2.000
N792 G1 X136.086 Y1454.180 Z-9.750 F500.0
N793 G1 X96.808 Y1470.450 Z-9.750 F1500.0
N794 G1 X76.482 Y1478.869 Z-9.750
N795 G1 X39.079 Y1494.362 Z-9.750
N796 G2 X35.832 Y1502.201 I2.296 J5.543 
N797 G3 X35.832 Y1685.124 I-220.807 J91.461 
N798 G2 X39.079 Y1692.963 I5.543 J2.296 
N799 G1 X80.768 Y1710.232 Z-9.750 
N800 G1 X101.094 Y1718.651 Z-9.750
N801 G1 X136.086 Y1733.145 Z-9.750
N802 G2 X143.926 Y1729.898 I2.296 J-5.543 
N803 G2 X143.926 Y1457.427 I-328.901 J-136.235
N804 G2 X136.086 Y1454.180 I-5.543 J2.296
N805 G1 X136.086 Y1454.180 Z-19.500 F500.0
N806 G1 X96.808 Y1470.450 Z-19.500 F1500.0
N807 G1 X96.808 Y1470.450 Z-11.500
N808 G1 X76.482 Y1478.869 Z-11.500
N809 G1 X76.482 Y1478.869 Z-19.500 F500.0
N810 G1 X39.079 Y1494.362 Z-19.500 F1500.0
N811 G2 X35.832 Y1502.201 I2.296 J5.543 
N812 G3 X35.832 Y1685.124 I-220.807 J91.461 
N813 G2 X39.079 Y1692.963 I5.543 J2.296 
N814 G1 X80.768 Y1710.232 Z-19.500 
N815 G1 X80.768 Y1710.232 Z-11.500
N816 G1 X101.094 Y1718.651 Z-11.500
N817 G1 X101.094 Y1718.651 Z-19.500 F500.0
N818 G1 X136.086 Y1733.145 Z-19.500 F1500.0
N819 G2 X143.926 Y1729.898 I2.296 J-5.543 
N820 G2 X143.926 Y1457.427 I-328.901 J-136.235
N821 G2 X136.086 Y1454.180 I-5.543 J2.296
N822 G00 X136.086 Y1454.180 Z10.000
N823 G00 Z100.000
N824 G00 X400.000 Y400.000
N825 M09
N826 M30
%
